img/training.svg

<svg width="48" height="48" viewBox="0 0 48 48" fill="none" xmlns="http://www.w3.org/2000/svg">
<g clip-path="url(#clip0_55284_1249)">
<path d="M48 24C48 20.514 46.1618 17.3483 43.2212 15.6097C43.5666 14.2193 43.4353 12.7439 42.8241 11.4052C42.1704 9.97406 41.0377 8.85534 39.6346 8.22394C39.492 6.17259 38.65 4.25737 37.208 2.74491C35.5203 0.974812 33.2435 0 30.7969 0C28.1388 0 25.6596 1.19709 24 3.17737C22.3405 1.19709 19.8613 0 17.2031 0C14.7565 0 12.4797 0.974813 10.792 2.745C9.34997 4.25747 8.508 6.17259 8.36541 8.22403C6.96225 8.85544 5.82947 9.97416 5.17594 11.4053C4.56459 12.744 4.43344 14.2194 4.77881 15.6097C1.83825 17.3483 0 20.514 0 24C0 27.486 1.83825 30.6517 4.77881 32.3903C4.43344 33.7808 4.56469 35.2561 5.17594 36.5947C5.82956 38.0259 6.96234 39.1447 8.36541 39.7761C8.508 41.8274 9.34997 43.7426 10.792 45.2551C12.4797 47.0252 14.7565 48 17.2031 48C19.8613 48 22.3405 46.8029 24 44.8226C25.6596 46.8029 28.1388 48 30.7969 48C33.2435 48 35.5203 47.0252 37.208 45.255C38.65 43.7425 39.492 41.8273 39.6346 39.776C41.0378 39.1446 42.1705 38.0258 42.8241 36.5947C43.4354 35.256 43.5666 33.7807 43.2212 32.3903C46.1618 30.6517 48 27.486 48 24V24ZM41.1986 30.2812H34.5V26.2389H39.4688C40.2454 26.2389 40.875 25.6093 40.875 24.8327C40.875 24.7214 40.8749 20.7188 40.8749 20.7188C40.8749 19.9422 40.2453 19.3126 39.4687 19.3126C38.692 19.3126 38.0624 19.9422 38.0624 20.7188V23.4264H34.5V20.9889C34.5 19.4381 33.2383 18.1764 31.6875 18.1764H28.875C28.0984 18.1764 27.4688 18.8061 27.4688 19.5827C27.4688 20.3593 28.0984 20.9889 28.875 20.9889H31.6875V30.2812H25.4059V27.75C25.4059 26.9734 24.7763 26.3438 23.9996 26.3438C23.223 26.3438 22.5934 26.9734 22.5934 27.75V30.2812C22.5934 31.8321 23.8551 33.0938 25.4059 33.0938H40.4966C40.6814 33.8653 40.6052 34.6829 40.2656 35.4264C39.8113 36.4212 38.9462 37.1467 37.8918 37.4171C37.2455 37.5829 36.8046 38.1799 36.8364 38.8463C36.9162 40.5184 36.3252 42.1052 35.1723 43.3144C34.0207 44.5222 32.4668 45.1875 30.7969 45.1875C28.519 45.1875 26.434 43.8989 25.4062 41.882V38.9062H27.9375C28.7141 38.9062 29.3438 38.2766 29.3438 37.5C29.3438 36.7234 28.7141 36.0938 27.9375 36.0938H25.4062C23.8554 36.0938 22.5938 37.3554 22.5938 38.9062V41.8819C21.5662 43.8989 19.4812 45.1875 17.2031 45.1875C15.5332 45.1875 13.9793 44.5223 12.8276 43.3143C11.9982 42.4445 11.4616 41.3787 11.2543 40.2269H14.625C16.1758 40.2269 17.4375 38.9652 17.4375 37.4144V35.676H18.6562C19.4329 35.676 20.0625 35.0464 20.0625 34.2698C20.0625 33.4931 19.4329 32.8635 18.6562 32.8635H17.4375V31.125C17.4375 29.5742 16.1758 28.3125 14.625 28.3125H12.1875C11.4109 28.3125 10.7812 28.9421 10.7812 29.7188C10.7812 30.4954 11.4109 31.125 12.1875 31.125H14.625V37.4144C14.625 37.4144 10.1117 37.418 10.1081 37.417C9.05372 37.1467 8.1885 36.4211 7.73428 35.4263C7.27903 34.4294 7.29666 33.2992 7.78294 32.3254C7.95666 31.9773 7.9785 31.5728 7.84322 31.2081C7.70794 30.8434 7.42753 30.551 7.06875 30.4005C4.48313 29.3158 2.8125 26.8034 2.8125 24C2.8125 21.1966 4.48313 18.6842 7.06866 17.5996C7.11019 17.5822 7.15041 17.5624 7.18978 17.5413H9.37491V21.76C9.37491 22.5367 10.0045 23.1663 10.7812 23.1663C11.5578 23.1663 12.1874 22.5367 12.1874 21.76V17.5413H17.4375V24.385C17.4375 25.1617 18.0671 25.7913 18.8438 25.7913C19.6204 25.7913 20.25 25.1617 20.25 24.385V21.8538H21.6203C22.397 21.8538 23.0266 21.2242 23.0266 20.4475C23.0266 19.6709 22.397 19.0413 21.6203 19.0413H20.25V17.5413C20.25 15.9905 18.9883 14.7288 17.4375 14.7288H16.5938V10.9688C16.5938 10.1921 15.9642 9.5625 15.1876 9.5625C14.411 9.5625 13.7813 10.1921 13.7813 10.9688V14.7287H7.46531C7.33162 14.0102 7.42069 13.2603 7.73428 12.5736C8.18859 11.5788 9.05372 10.8533 10.1081 10.5829C10.7544 10.4171 11.1953 9.82013 11.1635 9.15366C11.0837 7.48163 11.6747 5.89481 12.8276 4.68562C13.9793 3.47775 15.5332 2.8125 17.2031 2.8125C19.5528 2.8125 21.6971 4.18341 22.6875 6.31059V11.0625C22.6875 12.6133 23.9492 13.875 25.5 13.875H33C33.7766 13.875 34.4062 13.2454 34.4062 12.4688C34.4062 11.6921 33.7766 11.0625 33 11.0625H32.7188V9.09375C32.7188 8.31712 32.0891 7.6875 31.3125 7.6875C30.5359 7.6875 29.9062 8.31712 29.9062 9.09375V11.0625H25.5C25.5 11.0625 25.4975 5.99962 25.4929 5.95341C26.5483 4.03116 28.5816 2.8125 30.7969 2.8125C32.4668 2.8125 34.0207 3.47775 35.1724 4.68572C36.3253 5.89491 36.9163 7.48162 36.8365 9.15375C36.8047 9.82022 37.2456 10.4172 37.8919 10.583C38.9463 10.8533 39.8115 11.5789 40.2657 12.5737C40.721 13.5706 40.7033 14.7008 40.2171 15.6747C40.0433 16.0227 40.0215 16.4272 40.1568 16.7919C40.2921 17.1566 40.5726 17.449 40.9313 17.5995C43.5169 18.6842 45.1875 21.1966 45.1875 24C45.1875 26.7055 43.6312 29.1395 41.1986 30.2812V30.2812Z" fill="#FF5A30"/>
</g>
<defs>
<clipPath id="clip0_55284_1249">
<rect width="48" height="48" fill="white"/>
</clipPath>
</defs>
</svg>

<svg width="48" height="48" fill="none" xmlns="http://www.w3.org/2000/svg"><g clip-path="url(#clip0_55284_1249)"><path d="M48 24a9.728 9.728 0 00-4.779-8.39 6.39 6.39 0 00-.397-4.205 6.38 6.38 0 00-3.19-3.181 8.775 8.775 0 00-2.426-5.48A8.779 8.779 0 0030.797 0 8.88 8.88 0 0024 3.177 8.88 8.88 0 0017.203 0a8.779 8.779 0 00-6.411 2.745 8.774 8.774 0 00-2.427 5.479 6.38 6.38 0 00-3.19 3.181 6.39 6.39 0 00-.396 4.205A9.728 9.728 0 000 24a9.728 9.728 0 004.779 8.39 6.39 6.39 0 00.397 4.205 6.38 6.38 0 003.19 3.181 8.775 8.775 0 002.426 5.48A8.779 8.779 0 0017.203 48 8.88 8.88 0 0024 44.823 8.88 8.88 0 0030.797 48a8.779 8.779 0 006.411-2.745 8.775 8.775 0 002.427-5.479 6.38 6.38 0 003.19-3.181 6.39 6.39 0 00.396-4.205A9.728 9.728 0 0048 24zm-6.801 6.281H34.5V26.24h4.969c.776 0 1.406-.63 1.406-1.406v-4.114a1.406 1.406 0 00-2.813 0v2.707H34.5V20.99a2.816 2.816 0 00-2.813-2.813h-2.812a1.406 1.406 0 000 2.813h2.813v9.292h-6.282V27.75a1.406 1.406 0 00-2.813 0v2.531a2.816 2.816 0 002.813 2.813h15.09a3.59 3.59 0 01-.23 2.332 3.577 3.577 0 01-2.374 1.991 1.406 1.406 0 00-1.056 1.43 6.002 6.002 0 01-1.664 4.467 5.992 5.992 0 01-4.375 1.873 6.062 6.062 0 01-5.39-3.305v-2.976h2.53a1.406 1.406 0 000-2.812h-2.53a2.816 2.816 0 00-2.813 2.812v2.976a6.061 6.061 0 01-5.39 3.306 5.991 5.991 0 01-4.376-1.874 5.994 5.994 0 01-1.574-3.087h3.371a2.816 2.816 0 002.813-2.813v-1.738h1.218a1.406 1.406 0 100-2.813h-1.218v-1.738a2.816 2.816 0 00-2.813-2.813h-2.438a1.406 1.406 0 000 2.813h2.438v6.29s-4.513.003-4.517.002a3.577 3.577 0 01-2.374-1.99 3.58 3.58 0 01.049-3.102 1.407 1.407 0 00-.714-1.925A6.925 6.925 0 012.813 24a6.925 6.925 0 014.256-6.4c.041-.018.081-.038.12-.059h2.186v4.219a1.406 1.406 0 102.812 0v-4.219h5.25v6.844a1.406 1.406 0 102.813 0v-2.531h1.37a1.406 1.406 0 100-2.813h-1.37v-1.5a2.816 2.816 0 00-2.813-2.812h-.843v-3.76a1.406 1.406 0 10-2.813 0v3.76H7.465a3.595 3.595 0 01.27-2.155 3.578 3.578 0 012.373-1.991 1.406 1.406 0 001.056-1.43 6.002 6.002 0 011.664-4.467 5.992 5.992 0 014.375-1.873 6.06 6.06 0 015.485 3.498v4.752a2.816 2.816 0 002.812 2.812H33a1.406 1.406 0 000-2.813h-.281V9.095a1.406 1.406 0 00-2.813 0v1.969H25.5s-.003-5.063-.007-5.11a6.063 6.063 0 015.304-3.14c1.67 0 3.224.665 4.375 1.873a6.002 6.002 0 011.665 4.468 1.406 1.406 0 001.055 1.429c1.054.27 1.92.996 2.374 1.99a3.581 3.581 0 01-.049 3.102 1.406 1.406 0 00.714 1.924A6.925 6.925 0 0145.188 24a6.924 6.924 0 01-3.99 6.281z" fill="#FF5A30"/></g><defs><clipPath id="clip0_55284_1249"><path fill="#fff" d="M0 0h48v48H0z"/></clipPath></defs></svg>
